storage/app/icons/phosphoricons/thin/chart-bar-thin.svg

<svg xmlns="http://www.w3.org/2000/svg" fill="currentColor" viewBox="0 0 256 256"><path d="M224 204h-12V40a4 4 0 0 0-4-4h-56a4 4 0 0 0-4 4v44H96a4 4 0 0 0-4 4v44H48a4 4 0 0 0-4 4v68H32a4 4 0 0 0 0 8h192a4 4 0 0 0 0-8M156 44h48v160h-48Zm-56 48h48v112h-48Zm-48 48h40v64H52Z"/></svg>

<svg xmlns="http://www.w3.org/2000/svg" viewBox="0 0 256 256" fill="currentColor"><path d="M224,204H212V40a4,4,0,0,0-4-4H152a4,4,0,0,0-4,4V84H96a4,4,0,0,0-4,4v44H48a4,4,0,0,0-4,4v68H32a4,4,0,0,0,0,8H224a4,4,0,0,0,0-8ZM156,44h48V204H156ZM100,92h48V204H100ZM52,140H92v64H52Z"/></svg>
